X:7248
T:Hot Springs                                                      Page 1
M:4/4
L:1/8
Q:180
S:Transcription of Jimmy Don Bates, Weiser 1997 by LLarry Brandon
K:F
ce|f2 fg fecA|cdcA FcAG|ECEd cAEC|DEFG Acdc|!
faga fdcA|cdcA Fcdc|ECEd cAEC| F2 (G/2F/2E/2) F3 c|!
f2 fg fecA|cdcA FCDF|EAGF ECDE|FGAc dcde|!
faga fdcA|cdcA Fcdc|ECEd cAEC|F2 (G/2F/2E/2) F3 (F/2E/2D/2)||!
A,DDC DCA,C|DCDE FE F2|AcAG FAGF|ECED ECDC|!
A,DDC DCA,C|A,CDE FcAG|FDEC DCED|A,C D2 D4|!
"4"D2 "4"D2 DEDC|A,CDE F3 F|"4"A2 d2 A2 d2|A_AGF GFDC|!
A,CDC DEDC|A,CDE FEFG|AFGE FDEC|A,CDE FGAc||!
faga fdcA|cdcA FcAF|EC E A2 G EC|DEFG Acde|!
f2 eg fdcA|cdcA FCDF|EdcA ECDE|F2 (G/2F/2E/2) F3 c|!
f2 eg fdcA|cdcA FcAF|EC E A2 G EC|DEFG Acde|!
fc'ag fdcA|cfdc AdcA|FEFd cAEC|F2 (G/2F/2E/2) F3 (F/2E/2D/3)||!


